X: 70
T: Ave Maria
N: Derived from Ock2002-Ave_Maria.krn
C: Johannes Ockeghem
%%abc-version 2.0
%%abcx-abcm2ps-target-version 5.9.1 (29 Sep 2008)
%%abc-creator hum2abc beta
%%abcx-conversion-date 2019/02/17 07:26:16
%%abc-edited-by Jesse Rodin
%%abc-edited-by Jesse Rodin 8-16-2012
%%abcx-initial-encoding-date 2012/08/16/
%%humdrum-veritas 980687657
%%humdrum-veritas-data 4021900538
%%linebreak <none>
%%barnumbers 0
L: 1/4
M: 3/1
Q: 1/2=120
%%staves [1 2 3 4]
V: 1 clef=treble
V: 2 clef=treble-8
V: 3 clef=treble-8
V: 4 clef=bass
K: C
[V:1] A6F4ED | 
[V:2] d8d4 | 
[V:3] A8A4 | 
[V:4] D,8D,4 | 
[V:1] E6DCB,4 | 
[V:2] z2G4F2G2FE | 
[V:3] c6BAG4 | 
[V:4] C,6D,2E,2D,C, | 
[V:1] B,4z4B4 | 
[V:2] D2G4F2D4 | 
[V:3] GED2E2A4^G2 | 
[V:4] B,,3G,,C,2D,2B,,4 | 
[V:1] c4B2A2z2d2 | 
[V:2] E6A2D2G2 | 
[V:3] A4B2c2d4 | 
[V:4] A,,4z2A,,2_B,,4 | 
[V:1] c2B3EA3FG2 | 
[V:2] A2B2G2A2E4- | 
[V:3] z2d2e2c2B2e2- | 
[V:4] A,,2G,,2C,2A,,2E,3C, | 
[V:1] A6F2G3E | 
[V:2] E2D4A2G3F | 
[V:3] e2f4d4^c2 | 
[V:4] C,2D,2F,4E,4 | 
[V:1] F4z4F4 | 
[V:2] A4F8 | 
[V:3] d6c2A4 | 
[V:4] D,12 | 
[V:1] G6FED4 | 
[V:2] E4D4G4 | 
[V:3] G4_B8 | 
[V:4] z4G,,8 | 
[V:1] C4D2E3D/C/B,A, | 
[V:2] E4z4E4 | 
[V:3] A4G4A2G2 | 
[V:4] A,,4B,,2C,2A,,2z2 | 
[V:1] C2D2A,2C2B,4 | 
[V:2] F2G2E4z2E2 | 
[V:3] A2B2c2A4^G2 | 
[V:4] A,,2G,,2A,,4E,4 | 
[V:1] A,4z4z4 | 
[V:2] E3DE2F2G4 | 
[V:3] A4z4c4 | 
[V:4] A,,4C,2D,2E,4 | 
[V:1] A4A4A4 | 
[V:2] F4z4A4- | 
[V:3] c4c2A2A4 | 
[V:4] F,8z2F,2- | 
[V:1] c6A2_B4 | 
[V:2] A4E4F4 | 
[V:3] z4c4d4 | 
[V:4] F,2E,2C,4_B,,4 | 
[V:1] A4c3_BG2F2 | 
[V:2] z4A4G2A2 | 
[V:3] c2A4d3cd2- | 
[V:4] F,8E,2D,2 | 
[V:1] _B2A2d4c2A2- | 
[V:2] z2F2f2d2e2c2- | 
[V:3] d2c2A2_B2c4 | 
[V:4] G,2A,2F,2G,2C,2F,2- | 
[V:1] AGF2G2_B2A3G | 
[V:2] c2f3de2f4 | 
[V:3] A2c4_B2c4 | 
[V:4] F,2A,2G,4F,4 | 
[V:1] F2E2D4z2C2 | 
[V:2] F2G2_B2A3GE2 | 
[V:3] z2c2d2f2e2A2 | 
[V:4] D,2C,2z2D,2A,,4 | 
[V:1] D2C2D2F2E4 | 
[V:2] F2E2F2A3GE2 | 
[V:3] _B2A2z2d2c4 | 
[V:4] D,2A,,2D,4A,,4 | 
[V:1] F2E2F2EFGFED | 
[V:2] D2A4F2E2c2 | 
[V:3] d2c2d2cde2A2- | 
[V:4] D,2A,,2D,4C,4 | 
[V:1] F2E3DD4^C2 | 
[V:2] z2=B2c2A3GE2 | 
[V:3] A2G2A2F2E4 | 
[V:4] D,2E,2C,2D,2A,,4 | 
[V:1] D4z4G4 | 
[V:2] F2D2D4z4 | 
[V:3] D4G3A_B4- | 
[V:4] z2_B,,4G,,2G,,4- | 
[V:1] G6FED4 | 
[V:2] d8d4 | 
[V:3] B2G2G8 | 
[V:4] G,,8_B,,4- | 
[V:1] z2_B3AB2cBAG | 
[V:2] z2G2F4G4 | 
[V:3] d8_e4 | 
[V:4] B,,2C,2D,4C,4 | 
[V:1] F6F2A2_Bc | 
[V:2] _B2A3GFED4 | 
[V:3] d8d4 | 
[V:4] D,8F,4 | 
[V:1] d4c2A2G2c2 | 
[V:2] _B4A2F2z2G2 | 
[V:3] G4c2d2_e4 | 
[V:4] z2G,2A,3_B,C2C,2 | 
[V:1] _B2A4G4^F2 | 
[V:2] F2A2_B2G3FD2- | 
[V:3] d2c2G2_B2A4 | 
[V:4] D,2F,2E,2G,2D,4 | 
[V:1] G6FEE2DC | 
[V:2] D2D2G2A4A2 | 
[V:3] G6c4=BA | 
[V:4] G,,4_B,,2A,,2C,4 | 
[V:1] D4z4z4 | 
[V:2] G4z4G4 | 
[V:3] B4B4c4 | 
[V:4] G,,2G,4F,2E,4 | 
[V:1] F8G4 | 
[V:2] A8c4 | 
[V:3] d8z4 | 
[V:4] D,8E,4 | 
[V:1] A4_B6A2 | 
[V:2] F4G8 | 
[V:3] d8d4 | 
[V:4] D,4G,,8 | 
[V:1] A4F2G3FED | 
[V:2] A2F4E2G4 | 
[V:3] c4A2G2_B4 | 
[V:4] z4z4G,,4 | 
[V:1] F2E3DC2B,4 | 
[V:2] C8E4 | 
[V:3] A4G2A4^G2 | 
[V:4] A,,4z4z4 | 
[V:1] A,12 | 
[V:2] E4F3GA4 | 
[V:3] A8z4 | 
[V:4] A,,4D,3E,F,4 | 
[V:1] z12 | 
[V:2] G6A3FG2 | 
[V:3] c4c4c4 | 
[V:4] C,3D,E,2F,3D,E,2 | 
[V:1] A4F4F4 | 
[V:2] A4d8 | 
[V:3] F4_B8 | 
[V:4] F,4_B,,8 | 
[V:1] C4z4z4 | 
[V:2] c4A2_B6 | 
[V:3] A4d8 | 
[V:4] F,6G,6 | 
[V:1] c4c4c4 | 
[V:2] F4f8 | 
[V:3] c4A8 | 
[V:4] A,4F,8 | 
[V:1] G4z4A4 | 
[V:2] z4z4f4 | 
[V:3] =B4c8 | 
[V:4] E,6F,6 | 
[V:1] B2c2d6c2- | 
[V:2] d8D2E2 | 
[V:3] G12 | 
[V:4] G,2G,,3F,,_B,,4C,2 | 
[V:1] c4B6A2 | 
[V:2] F4G8 | 
[V:3] A4d8 | 
[V:4] A,,4G,,8 | 
[V:1] A6F2GFED | 
[V:2] A2F4A2E4 | 
[V:3] c2Bcd2A2B4 | 
[V:4] z12 | 
[V:1] C3_B,/A,/G,4A,2C2 | 
[V:2] E4z4C4 | 
[V:3] A2GFD2E4F2 | 
[V:4] A,,4_B,,2C,2A,,4 | 
[V:1] _B,D2CB,A,A,4G,2 | 
[V:2] D6E2F2G2 | 
[V:3] G2F4E2D4 | 
[V:4] G,,2D,4C,2_B,,4 | 
[V:1] A,12 |]  
[V:2] C12 & E12 |]  
[V:3] E12 |]  
[V:4] A,,12 |]  



